svg/todo_list.svg

<svg xmlns="http://www.w3.org/2000/svg" viewBox="0 0 32 32" enable-background="new 0 0 32 32"><path d="M 10.28125 5.28125 L 7 8.5625 L 5.71875 7.28125 L 4.28125 8.71875 L 6.28125 10.71875 L 7 11.40625 L 7.71875 10.71875 L 11.71875 6.71875 L 10.28125 5.28125 z M 15 7 L 15 9 L 28 9 L 28 7 L 15 7 z M 10.28125 13.28125 L 7 16.5625 L 5.71875 15.28125 L 4.28125 16.71875 L 6.28125 18.71875 L 7 19.40625 L 7.71875 18.71875 L 11.71875 14.71875 L 10.28125 13.28125 z M 15 15 L 15 17 L 28 17 L 28 15 L 15 15 z M 10.28125 21.28125 L 7 24.5625 L 5.71875 23.28125 L 4.28125 24.71875 L 6.28125 26.71875 L 7 27.40625 L 7.71875 26.71875 L 11.71875 22.71875 L 10.28125 21.28125 z M 15 23 L 15 25 L 28 25 L 28 23 L 15 23 z"/></svg>

<svg xmlns="http://www.w3.org/2000/svg" viewBox="0 0 32 32"><path d="M10.28 5.28L7 8.563l-1.28-1.28-1.44 1.437 2 2 .72.686.72-.687 4-4-1.44-1.44zM15 7v2h13V7H15zm-4.72 6.28L7 16.564 5.72 15.28l-1.44 1.44 2 2 .72.686.72-.687 4-4-1.44-1.44zM15 15v2h13v-2H15zm-4.72 6.28L7 24.563l-1.28-1.28-1.44 1.437 2 2 .72.686.72-.687 4-4-1.44-1.44zM15 23v2h13v-2H15z"/></svg>
